!!!OTL: Guan deng
!!!ARE: Asia, China,ÿHenan, jiaozuo
!! IV, 149
!!!SCT: C1658
!!!YEM: Copyright 1995, estate of Helmut Schaffrath.
**kern
*ICvox
*Ivox
*M2/4
*k[f#]
*G:
{4dd
8b
8a
=1
4dd
8b
8a
=2
8dd
16dd
16b
8dd
16e
16g
=3
4.a
8b
=4
2a}
=5
{4dd
8b
8a
=6
4dd
8b
8a
=7
8dd
16dd
16b
8dd
16e
16g
=8
4.a
8b
=9
2a}
=10
{8a
8b
8a
8b
=11
8e
8a
4g
=12
8g
16a
16b
8a
16g
16e
=13
4.d
8e
=14
2d}
=15
{8b
16b
16a
16b
16a
8g
=16
2a
=17
16b
16dd
16b
16a
8g
16dd
16b
=18
2a}
=19
{8a
8b
8a
8b
=20
8ee
16b
16a
4g
=21
8g
16a
16b
16a
16g
8e
=22
4.d
16e
16g
=23
2d}
==
!!!AGN: Xiaodiao, Keguazi diao
!!!AMT: simple duple
!!!AIN: vox
!!!EED: Helmut Schaffrath
!!!EEV: 1.0
*-
